X: 42167
T: Waterbed, The
R: reel
M: 4/4
K: Adorian
|EAAE c2 AG|EGDG ED (3EFG|AEGA cA ~A2|cdec dcAG|
EAAE c2 AG|EGDG ED (3Bcd|ecdc AEGA|dcAG EA A2:|
|:~e2 dege ~e2|cdeg dc Ac|~e2 dega ~e2|gedc AEGA|
~e2 dege ~e2|cdeg dega|gaeg deGA|CAGA EA ~A2:|

